X:1
T:Title
%%score { ( 1 3 ) | 2 }
L:1/8
M:6/8
K:Bb
V:1 treble nm="Grand Piano"
V:3 treble 
V:2 bass 
V:1
 z3 z2[Q:1/4=100] [B,D]/[CE]/ | [DF][DF][DB] ABc | [DB]3- [DB]2 [DB] | [Fd][DB][DB] [FB][EA][DB] | %4
[M:5/8] c-c- c3 |[M:1/8] F |[M:3/4] dd d[DB] [Ec][Fd] | [Ge]4- [Ge]G | FB dc- c/B/A | %9
[M:5/8] [DB]-[DB]- [DB]3 |[M:1/8] F |[M:3/4] c4 z2 | d6 | e4 z2 |[M:5/8] d-d- d3 |[M:1/8] [DF] | %16
[M:3/4] G>^F G [Ge]2 [EG] |[M:7/8] [DF]>[_D=E][=DF] [Fd]3 [Ge] |[M:3/4] d>c BA GA | %19
[M:5/8] [DB]-[DB]- [DB]3 |] %20
V:2
 z3 z2 [B,,F,] | [B,,B,][B,,B,][B,,F,] [F,C][F,D][F,A,E] | [B,,B,]3- [B,,B,]2 [B,,B,] | %3
 [B,,B,][B,,F,][B,,F,] [D,B,][C,F,][B,,F,] |[M:5/8] [F,A,F]-[F,A,F]- [F,A,F]3 |[M:1/8] [F,A,] | %6
[M:3/4][K:treble] [B,F][B,F] [B,F][K:bass][B,,B,] [B,,B,][B,,B,] | [E,B,]4- [E,B,][E,B,E] | %8
 [F,B,D][F,DF] [F,B,F][F,A,E]- [F,A,E]/[F,B,D]/[F,CE] |[M:5/8] [B,,B,]-[B,,B,]- [B,,B,]3 | %10
[M:1/8] z |[M:3/4] z2 [F,A,][F,A,] [D,B,][K:treble][F,A,F] | [B,F]2[K:bass] [B,,F,] .[B,,F,]3 | %13
 z2 [F,A,][F,A,][K:treble] [G,B,F][A,CF] |[M:5/8] [B,F]-[B,F]- [B,F]3 |[M:1/8][K:bass] [B,,B,] | %16
[M:3/4] [E,B,E]>[E,A,E] [E,B,E] [E,B,]2 [E,B,] |[M:7/8] [B,,B,]>[B,,B,][B,,B,] [B,,B,]3 [E,B,] | %18
[M:3/4] [F,B,F]>[F,EF] [F,DF][F,CE] [F,B,E][F,CE] |[M:5/8] [B,,B,]-[B,,B,]- [B,,B,]3 |] %20
V:3
 x6 | x6 | x6 | x6 |[M:5/8] x5 |[M:1/8] x |[M:3/4] x6 | x6 | x6 |[M:5/8] x5 |[M:1/8] x | %11
[M:3/4] z2 FF [FB]c | z2 D D2 B | z2 FF cf |[M:5/8] x5 |[M:1/8] x |[M:3/4] x6 |[M:7/8] x7 | %18
[M:3/4] x6 |[M:5/8] x5 |] %20

